%
O6714 (C ENGRAVE)
(T15 D=0.25 CR=0. TAPER=45DEG - ZMIN=0.6297 - CHAMFER MILL)
G90 G94 G17 G49 G40 G80
G20
G28 G91 Z0.
G90

(R)
T15 M06
(AL FS)
S2872 M03
G54
G00 X0.0989 Y-0.1127
G43 Z1.27 H15
G00 Z0.87
M08
G01 Z0.67 F6.7
X0.1052 Y-0.116 Z0.6648
X0.1016 Y-0.122 Z0.67
X0.1052 Y-0.116 Z0.6648
X0.1123 Y-0.1142 Z0.6643
X0.1253 Y-0.1118 Z0.6626
X0.1263 Y-0.1117 Z0.443
X0.1799 Y-0.0857 Z0.67
X0.1788 Y-0.1131 Z0.6443
X0.1784 Y-0.1171 Z0.6407
X0.1795 Y-0.1183 Z0.6403
X0.1807 Y-0.12 Z0.6401
X0.1822 Y-0.1228 Z0.6399
X0.1855 Y-0.1299 Z0.6391
X0.1869 Y-0.1327 Z0.6387
X0.188 Y-0.135 Z0.6382
X0.1897 Y-0.1384 Z0.6371
X0.1917 Y-0.1417 Z0.6358
X0.1941 Y-0.1455 Z0.634
X0.1965 Y-0.149 Z0.6321
X0.1992 Y-0.1526 Z0.6297
X0.1984 Y-0.1558 Z0.6307
X0.1964 Y-0.1637 Z0.6327
X0.1945 Y-0.1728 Z0.6346
X0.193 Y-0.1814 Z0.6361
X0.1918 Y-0.1905 Z0.6373
X0.1904 Y-0.2055 Z0.6387
X0.1896 Y-0.2194 Z0.6394
X0.1891 Y-0.2346 Z0.64
Y-0.5204
X0.1894 Y-0.5304 Z0.6402
X0.1898 Y-0.5393 Z0.6407
X0.1906 Y-0.5467 Z0.6414
X0.1909 Y-0.5486 Z0.6417
X0.1913 Y-0.5504 Z0.6421
X0.1917 Y-0.5518 Z0.6425
X0.1923 Y-0.5534 Z0.6431
X0.1933 Y-0.5558 Z0.6441
X0.1946 Y-0.5588 Z0.6455
X0.2004 Y-0.5695 Z0.6513
X0.2191 Y-0.5829 Z0.67
X0.2004 Y-0.5695 Z0.6513
X0.1984 Y-0.59 Z0.67
X0.2004 Y-0.5695 Z0.6513
X0.1946 Y-0.5588 Z0.6455
X0.1933 Y-0.5558 Z0.6441
X0.1923 Y-0.5534 Z0.6431
X0.1917 Y-0.5518 Z0.6425
X0.1913 Y-0.5504 Z0.6421
X0.1909 Y-0.5486 Z0.6417
X0.1906 Y-0.5467 Z0.6414
X0.1898 Y-0.5393 Z0.6407
X0.1894 Y-0.5304 Z0.6402
X0.1891 Y-0.5204 Z0.64
Y-0.2346
X0.1896 Y-0.2194 Z0.6394
X0.1904 Y-0.2055 Z0.6387
X0.1918 Y-0.1905 Z0.6373
X0.193 Y-0.1814 Z0.6361
X0.1945 Y-0.1728 Z0.6346
X0.1964 Y-0.1637 Z0.6327
X0.1984 Y-0.1558 Z0.6307
X0.1992 Y-0.1526 Z0.6297
X0.2017 Y-0.1517 Z0.6313
X0.2063 Y-0.1499 Z0.6342
X0.2108 Y-0.148 Z0.6366
X0.2128 Y-0.1469 Z0.6378
X0.2149 Y-0.1458 Z0.6388
X0.2175 Y-0.1443 Z0.64
X0.2193 Y-0.1433 Z0.6407
X0.2211 Y-0.1422 Z0.6414
X0.2228 Y-0.141 Z0.642
X0.2244 Y-0.1399 Z0.6424
X0.226 Y-0.1386 Z0.6429
X0.2391 Y-0.1278 Z0.6453
X0.2416 Y-0.1258 Z0.6457
X0.2442 Y-0.124 Z0.6458
X0.2538 Y-0.1184 Z0.6463
X0.2585 Y-0.1159 Z0.6469
X0.2619 Y-0.1143 Z0.6472
X0.2678 Y-0.1119 Z0.6479
X0.27 Y-0.1111 Z0.6481
X0.2777 Y-0.1089 Z0.6491
X0.2799 Y-0.1083 Z0.6493
X0.2882 Y-0.1067 Z0.6501
X0.2982 Y-0.1053 Z0.6506
X0.301 Y-0.105
X0.315 Y-0.1049 Z0.6519
X0.3183 Y-0.105 Z0.6522
X0.3203 Y-0.1052
X0.3298 Y-0.1064 Z0.6521
X0.3411 Y-0.1086 Z0.652
X0.3429 Y-0.109 Z0.6519
X0.35 Y-0.111 Z0.6518
X0.3519 Y-0.1116
X0.3561 Y-0.1131 Z0.6516
X0.3599 Y-0.1147
X0.3639 Y-0.1167 Z0.6514
X0.3664 Y-0.1181 Z0.6512
X0.374 Y-0.1232 Z0.6506
X0.3752 Y-0.124
X0.379 Y-0.1269 Z0.65
X0.3838 Y-0.1309 Z0.6494
X0.3902 Y-0.1367 Z0.6483
X0.3924 Y-0.1388 Z0.6479
X0.3995 Y-0.1457 Z0.6465
X0.4015 Y-0.1484 Z0.6464
X0.4071 Y-0.1566 Z0.6452
X0.4114 Y-0.1633 Z0.6444
X0.415 Y-0.1695 Z0.6435
X0.4173 Y-0.1736 Z0.6429
X0.4206 Y-0.1805 Z0.6419
X0.423 Y-0.1866 Z0.6411
X0.4248 Y-0.1919 Z0.6405
X0.4262 Y-0.1974 Z0.6399
X0.4272 Y-0.2023 Z0.6395
X0.4291 Y-0.2161 Z0.6386
X0.4294 Y-0.2196 Z0.6385
X0.43 Y-0.2306 Z0.6376
X0.4301 Y-0.236 Z0.6373
Y-0.2434 Z0.6366
X0.4293 Y-0.2524
X0.4291 Y-0.2541
X0.4266 Y-0.27 Z0.6359
X0.4235 Y-0.2831 Z0.6356
X0.4227 Y-0.2861
X0.4221 Y-0.2881
X0.4203 Y-0.2929 Z0.6355
X0.4182 Y-0.2976 Z0.6356
X0.4158 Y-0.3025 Z0.6359
X0.413 Y-0.3078 Z0.6364
X0.4113 Y-0.3109 Z0.6368
X0.406 Y-0.3192 Z0.6377
X0.4017 Y-0.3254 Z0.6382
X0.3987 Y-0.3294 Z0.6386
X0.3977 Y-0.3308 Z0.6388
X0.3941 Y-0.3352 Z0.6389
X0.3899 Y-0.3393 Z0.6397
X0.3844 Y-0.3444 Z0.6404
X0.3805 Y-0.3477 Z0.641
X0.3734 Y-0.3533 Z0.6419
X0.3675 Y-0.3574 Z0.6428
X0.3626 Y-0.3607 Z0.6438
X0.3591 Y-0.3629 Z0.6443
X0.3461 Y-0.3693 Z0.6451
X0.3436 Y-0.3706 Z0.6452
X0.3423 Y-0.3713
X0.3397 Y-0.373 Z0.645
X0.3367 Y-0.3751 Z0.6445
X0.3339 Y-0.3772 Z0.6437
X0.3312 Y-0.3796 Z0.6427
X0.3299 Y-0.3809 Z0.6421
X0.3263 Y-0.3846 Z0.64
X0.3235 Y-0.3877 Z0.6379
X0.3157 Y-0.3852 Z0.6427
X0.3122 Y-0.384 Z0.6449
X0.3008 Y-0.3796 Z0.6516
X0.299 Y-0.3788 Z0.6526
X0.2872 Y-0.3735 Z0.6593
X0.2675 Y-0.3639 Z0.67
X0.2872 Y-0.3735 Z0.6593
X0.299 Y-0.3788 Z0.6526
X0.3008 Y-0.3796 Z0.6516
X0.3122 Y-0.384 Z0.6449
X0.3157 Y-0.3852 Z0.6427
X0.3235 Y-0.3877 Z0.6379
X0.324 Y-0.3897 Z0.6387
X0.3246 Y-0.3918 Z0.6394
X0.3252 Y-0.3937 Z0.6401
X0.3259 Y-0.3957 Z0.6407
X0.3266 Y-0.3975 Z0.6412
X0.3274 Y-0.3994 Z0.6416
X0.3283 Y-0.4012 Z0.642
X0.3292 Y-0.403 Z0.6423
X0.3301 Y-0.4047 Z0.6426
X0.3311 Y-0.4064 Z0.6427
X0.3322 Y-0.408 Z0.6428
X0.3333 Y-0.4096
X0.346 Y-0.4258 Z0.6426
X0.358 Y-0.4406 Z0.6425
X0.3686 Y-0.453
X0.3827 Y-0.4687 Z0.6426
X0.3873 Y-0.4736 Z0.6427
X0.3956 Y-0.4822
X0.4073 Y-0.4936 Z0.643
X0.4232 Y-0.5079 Z0.6429
X0.4285 Y-0.5125 Z0.643
X0.4377 Y-0.5202 Z0.6429
X0.4503 Y-0.5304
X0.4682 Y-0.5444 Z0.6425
X0.4874 Y-0.559 Z0.6422
X0.4821 Y-0.59 Z0.67
X0.4874 Y-0.559 Z0.6422
X0.499 Y-0.5607 Z0.6476
X0.5108 Y-0.5621 Z0.6525
X0.5223 Y-0.5628 Z0.6569
X0.5281 Z0.6587
X0.5335 Y-0.5625 Z0.6602
X0.5436 Y-0.5616 Z0.6626
X0.5445 Y-0.5615 Z0.6627
X0.5573 Y-0.559 Z0.6644
X0.5635 Y-0.5574 Z0.6648
X0.5672 Y-0.5515 Z0.67
X0.5635 Y-0.5574 Z0.6648
X0.5699 Y-0.5607 Z0.67
G00 Z1.27

M09
G28 G91 Z0.
G49
G28 X0. Y0.
T1 M06
M30
%
